archdroid-icon-theme/Archdroid-Amber/emblems/scalable/emblem-jquery.svg

<svg height="338.579742" viewBox="0 0 351.457016 338.579737" width="351.457031" xmlns="http://www.w3.org/2000/svg"><path d="m210.082031 0-9.93164 13.6875c-13.267 19.523-14.567235 43.769031-5.365235 65.332031 9.709 22.886 29.600406 40.841516 52.816407 49.353516.958.357 1.912812.673953 2.882812 1.001953.424.129.845484.274391 1.271484.400391 1.367.43 2.724672.931265 4.138672 1.197265 64.158 12.396 81.556453-32.92375 86.189453-39.59375-15.242 21.947-40.857015 27.214891-72.291015 19.587891-2.479-.605-5.210469-1.501609-7.605469-2.349609-3.069-1.094001-6.092344-2.340954-9.027344-3.751954-5.585-2.681-10.899937-5.934156-15.835937-9.660156-28.124-21.34-45.594188-62.050078-27.242188-95.205078zm-72.783203 15.886719-18.386719 25.953125c-22.503 32.384-21.282515 75.732469-3.728515 109.980469 2.944 5.742 6.253125 11.311234 9.953125 16.615234 3.372 4.831 7.108984 10.581844 11.583984 14.464844 1.623 1.786 3.318781 3.529187 5.050781 5.242187.438.445.883079.8755 1.330079 1.3125 1.681 1.63 3.392156 3.234016 5.160156 4.791016.073.058.135984.131593.208984.183594.018.021.035828.027781.048828.050781 1.956 1.713 3.975391 3.360422 6.025391 4.982422.456.347.906234.711359 1.365234 1.068359 2.057 1.575 4.153688 3.124563 6.304688 4.601563.064.044.117594.091671.183594.138671.947.656 1.914 1.266485 2.875 1.896485.460999.3.898281.61939 1.363281.90039 1.535.984 3.089922 1.942328 4.669922 2.861329.224.139.443109.255812.662109.382812 1.362.784 2.742906 1.555641 4.128906 2.306641.481.271.974797.512578 1.466797.767578.955.5 1.912719 1.00914 2.886719 1.49414.146.069.300453.135266.439453.197266 1.983.977 3.983391 1.916641 6.025391 2.806641.434.193.886078.363875 1.330078.546875 1.63.692 3.2815 1.371859 4.9375 2.005859.704.267 1.414281.520391 2.113281.775391 1.506.559 3.017109 1.069078 4.537109 1.580078.688.219 1.361782.442297 2.050782.654297 2.162.671 4.302593 1.521484 6.558593 1.896484 116.19 19.25 143.013672-70.208984 143.013672-70.208984-24.183 34.824-71.009515 51.442703-120.978515 38.470703-2.217-.584-4.404172-1.219297-6.576172-1.904297-.668-.2-1.318516-.417719-1.978516-.636719-1.545-.5-3.081469-1.031937-4.605469-1.585937-.696-.256-1.392171-.511438-2.076171-.773438-1.667-.642-3.318172-1.305047-4.951172-1.998047-.449-.189-.897938-.364453-1.335938-.564453-2.052-.894-4.070547-1.834359-6.060547-2.818359-1.024-.499-2.030015-1.026922-3.041015-1.544922-.583-.303-1.170907-.605297-1.753907-.904297-1.295-.701-2.580703-1.431922-3.845703-2.169922-.303-.173-.616828-.336531-.923828-.519531-1.57-.921-3.119297-1.86775-4.654297-2.84375-.474-.301-.931297-.6285-1.404297-.9375-1.014-.656-2.021578-1.322094-3.017578-1.996094-2.14-1.477-4.223297-3.02575-6.279297-4.59375-.474-.374-.947062-.739281-1.414062-1.113281-21.871-17.27-39.207172-40.867953-47.451172-67.626953-8.638-27.753-6.776547-58.9055 8.189453-84.1875zm-90.693359 32.826172-24.28711 30.80664c-31.116 44.727-27.242656 102.910594-3.472656 150.433594.565 1.138 1.158188 2.261859 1.742188 3.380859.374.711.723328 1.440625 1.111328 2.140625.219.42.465359.830469.693359 1.230469.405.759.820234 1.47875 1.240235 2.21875.738 1.302 1.494531 2.594672 2.269531 3.888672.428.711.849968 1.421813 1.292969 2.132813.856999 1.386 1.735765 2.754093 2.634765 4.121093.374.583.738094 1.165469 1.121094 1.730469 1.24 1.849 2.5065 3.693859 3.8125 5.505859.033.048.069375.097532.109375.144532.206.288.434531.572281.644531.863281 1.13 1.561 2.296563 3.100047 3.476563 4.623047.434.555.870593 1.112015 1.308593 1.666015 1.052 1.324 2.124891 2.637219 3.212891 3.949219.407.488.816562.982844 1.226563 1.464844 1.461999 1.721 2.952609 3.435328 4.474609 5.111328.027.029.063797.065703.091797.095703.064.073.117875.1155.171875.1875 1.486 1.623 3.008828 3.208922 4.548828 4.794922.478.492.965031.985703 1.457031 1.470703 1.194 1.203 2.405859 2.383547 3.63086 3.560547.497999.475.990328.960109 1.486328 1.412109 1.637 1.542 3.290562 3.05525 4.976562 4.53125.029.025.050125.0475.078125.0625.286.255.584188.496235.867188.740235 1.486 1.287 2.999484 2.562406 4.521484 3.816406.62.503 1.248094.995141 1.871094 1.494141 1.245.996 2.502531 1.979312 3.769531 2.945312.669.511 1.339672 1.02125 2.013672 1.53125 1.398 1.028 2.808469 2.041203 4.230469 3.033203.518.375 1.021015.73975 1.541015 1.09375.144.102.275875.203735.421875.302735 1.349.93 2.729422 1.822797 4.107422 2.716797.593.394 1.180344.802546 1.777344 1.185546 2.114 1.338 4.260687 2.6605 6.429687 3.9375.589.339 1.183391.665954 1.775391 1.001954 1.595.922 3.200172 1.821984 4.826172 2.708984.88.474 1.782875.919 2.671875 1.375 1.146.602 2.285172 1.210922 3.451172 1.794922.265.131.539828.258719.798828.386719.47.226.943062.44364 1.414062.68164 1.808.863 3.629657 1.713203 5.472657 2.533203.392.176.771203.346578 1.158203.517578 2.109.923 4.234812 1.809297 6.382812 2.654297.516.212 1.037641.407328 1.556641.611328 1.987.766 4.000437 1.520469 6.023437 2.230469.255.092.50086.175672.75586.263672 2.219.776 4.46175 1.494266 6.71875 2.197266.538.157 1.078094.329328 1.621094.486328 2.297.692 4.565546 1.520031 6.935546 1.957031 150.486 27.442 194.199219-90.433594 194.199219-90.433594-36.713 47.829-101.880094 60.445438-163.621094 46.398438-2.341-.528-4.610578-1.256641-6.892578-1.931641-.58-.171-1.14775-.346484-1.71875-.521484-2.228-.682-4.438765-1.400203-6.634765-2.158203-.301-.109-.60511-.219125-.91211-.328125-1.969-.693-3.914562-1.421922-5.851562-2.169922-.547-.219-1.093625-.427485-1.640625-.646485-2.124-.838-4.233407-1.712046-6.316406-2.623046-.429001-.183-.838719-.375594-1.261719-.558594-1.792-.812-3.563125-1.630469-5.328125-2.480469-.51-.244-1.020063-.485234-1.539063-.740234-1.386-.675-2.756047-1.391703-4.123047-2.095703-.915-.48-1.845-.937454-2.75-1.439454-1.669-.894-3.307453-1.823484-4.939453-2.771484-.552-.31-1.111968-.607687-1.667968-.929687-2.169-1.275-4.312594-2.598454-6.433594-3.939454-.585-.372-1.157375-.77325-1.734375-1.15625-1.539-.991-3.071125-2.001921-4.578125-3.044921-.5-.335-.98261-.700157-1.47461-1.035157-1.457-1.028-2.896125-2.069953-4.328125-3.126953-.648-.481-1.286015-.970172-1.916015-1.451172-1.311-1.003-2.61525-2.013734-3.90625-3.052734-.583-.463-1.166235-.928531-1.740235-1.394531-1.641-1.349-3.263281-2.70661-4.863281-4.09961-.167-.146-.350203-.290265-.533203-.447265-1.731-1.521-3.432281-3.081438-5.113281-4.648438-.489-.467-.961453-.917765-1.439453-1.384765-1.245-1.185001-2.470828-2.378516-3.673828-3.603516-.483-.481-.965454-.953547-1.439454-1.435547-1.531-1.567-3.034812-3.157531-4.507812-4.769531-.073-.08-.148656-.152328-.222656-.236328-1.559-1.702-3.081266-3.445125-4.572266-5.203125-.405-.484-.795266-.947875-1.197266-1.421875-1.112-1.342-2.216015-2.69736-3.291015-4.06836-.405-.488-.808031-.994953-1.207031-1.501953-1.296-1.681-2.560782-3.357547-3.800782-5.060547-34.279-46.757-46.593312-111.24889-19.195312-164.21289z" fill="#0868ac" transform=""/></svg>

<svg height="338.579742" version="1.1" viewBox="0 0 351.457016 338.579737" width="351.457031" xmlns="http://www.w3.org/2000/svg"><g transform="translate(-498.656237 -345.592761)"><path d="M210.082031 0L200.150391 13.6875C186.883391 33.2105 185.583156 57.456531 194.785156 79.019531 204.494156 101.905531 224.385562 119.861047 247.601563 128.373047 248.559563 128.730047 249.514375 129.047 250.484375 129.375 250.908375 129.504 251.329859 129.649391 251.755859 129.775391 253.122859 130.205391 254.480531 130.706656 255.894531 130.972656 320.052531 143.368656 337.450984 98.048906 342.083984 91.378906 326.841984 113.325906 301.226969 118.593797 269.792969 110.966797 267.313969 110.361797 264.5825 109.465188 262.1875 108.617188 259.1185 107.523187 256.095156 106.276234 253.160156 104.865234 247.575156 102.184234 242.260219 98.931078 237.324219 95.205078 209.200219 73.865078 191.730031 33.155 210.082031 0zM137.298828 15.886719L118.912109 41.839844C96.409109 74.223844 97.629594 117.572313 115.183594 151.820313 118.127594 157.562313 121.436719 163.131547 125.136719 168.435547 128.508719 173.266547 132.245703 179.017391 136.720703 182.900391 138.343703 184.686391 140.039484 186.429578 141.771484 188.142578 142.209484 188.587578 142.654563 189.018078 143.101563 189.455078 144.782563 191.085078 146.493719 192.689094 148.261719 194.246094 148.334719 194.304094 148.397703 194.377687 148.470703 194.429688 148.488703 194.450688 148.506531 194.457469 148.519531 194.480469 150.475531 196.193469 152.494922 197.840891 154.544922 199.462891 155.000922 199.809891 155.451156 200.17425 155.910156 200.53125 157.967156 202.10625 160.063844 203.655813 162.214844 205.132813 162.278844 205.176813 162.332438 205.224484 162.398438 205.271484 163.345438 205.927484 164.312438 206.537969 165.273438 207.167969 165.734437 207.467969 166.171719 207.787359 166.636719 208.068359 168.171719 209.052359 169.726641 210.010687 171.306641 210.929688 171.530641 211.068688 171.74975 211.1855 171.96875 211.3125 173.33075 212.0965 174.711656 212.868141 176.097656 213.619141 176.578656 213.890141 177.072453 214.131719 177.564453 214.386719 178.519453 214.886719 179.477172 215.395859 180.451172 215.880859 180.597172 215.949859 180.751625 216.016125 180.890625 216.078125 182.873625 217.055125 184.874016 217.994766 186.916016 218.884766 187.350016 219.077766 187.802094 219.248641 188.246094 219.431641 189.876094 220.123641 191.527594 220.8035 193.183594 221.4375 193.887594 221.7045 194.597875 221.957891 195.296875 222.212891 196.802875 222.771891 198.313984 223.281969 199.833984 223.792969 200.521984 224.011969 201.195766 224.235266 201.884766 224.447266 204.046766 225.118266 206.187359 225.96875 208.443359 226.34375 324.633359 245.59375 351.457031 156.134766 351.457031 156.134766 327.274031 190.958766 280.447516 207.577469 230.478516 194.605469 228.261516 194.021469 226.074344 193.386172 223.902344 192.701172 223.234344 192.501172 222.583828 192.283453 221.923828 192.064453 220.378828 191.564453 218.842359 191.032516 217.318359 190.478516 216.622359 190.222516 215.926188 189.967078 215.242188 189.705078 213.575188 189.063078 211.924016 188.400031 210.291016 187.707031 209.842016 187.518031 209.393078 187.342578 208.955078 187.142578 206.903078 186.248578 204.884531 185.308219 202.894531 184.324219 201.870531 183.825219 200.864516 183.297297 199.853516 182.779297 199.270516 182.476297 198.682609 182.174 198.099609 181.875 196.804609 181.174 195.518906 180.443078 194.253906 179.705078 193.950906 179.532078 193.637078 179.368547 193.330078 179.185547 191.760078 178.264547 190.210781 177.317797 188.675781 176.341797 188.201781 176.040797 187.744484 175.713297 187.271484 175.404297 186.257484 174.748297 185.249906 174.082203 184.253906 173.408203 182.113906 171.931203 180.030609 170.382453 177.974609 168.814453 177.500609 168.440453 177.027547 168.075172 176.560547 167.701172 154.689547 150.431172 137.353375 126.833219 129.109375 100.074219 120.471375 72.321219 122.332828 41.168719 137.298828 15.886719zM46.605469 48.712891L22.318359 79.519531C-8.797641 124.246531-4.924297 182.430125 18.845703 229.953125 19.410703 231.091125 20.003891 232.214984 20.587891 233.333984 20.961891 234.044984 21.311219 234.774609 21.699219 235.474609 21.918219 235.894609 22.164578 236.305078 22.392578 236.705078 22.797578 237.464078 23.212812 238.183828 23.632813 238.923828 24.370813 240.225828 25.127344 241.5185 25.902344 242.8125 26.330344 243.5235 26.752312 244.234313 27.195313 244.945313 28.052312 246.331313 28.931078 247.699406 29.830078 249.066406 30.204078 249.649406 30.568172 250.231875 30.951172 250.796875 32.191172 252.645875 33.457672 254.490734 34.763672 256.302734 34.796672 256.350734 34.833047 256.400266 34.873047 256.447266 35.079047 256.735266 35.307578 257.019547 35.517578 257.310547 36.647578 258.871547 37.814141 260.410594 38.994141 261.933594 39.428141 262.488594 39.864734 263.045609 40.302734 263.599609 41.354734 264.923609 42.427625 266.236828 43.515625 267.548828 43.922625 268.036828 44.332187 268.531672 44.742188 269.013672 46.204187 270.734672 47.694797 272.449 49.216797 274.125 49.243797 274.154 49.280594 274.190703 49.308594 274.220703 49.372594 274.293703 49.426469 274.336203 49.480469 274.408203 50.966469 276.031203 52.489297 277.617125 54.029297 279.203125 54.507297 279.695125 54.994328 280.188828 55.486328 280.673828 56.680328 281.876828 57.892187 283.057375 59.117188 284.234375 59.615187 284.709375 60.107516 285.194484 60.603516 285.646484 62.240516 287.188484 63.894078 288.701734 65.580078 290.177734 65.609078 290.202734 65.630203 290.225234 65.658203 290.240234 65.944203 290.495234 66.242391 290.736469 66.525391 290.980469 68.011391 292.267469 69.524875 293.542875 71.046875 294.796875 71.666875 295.299875 72.294969 295.792016 72.917969 296.291016 74.162969 297.287016 75.4205 298.270328 76.6875 299.236328 77.3565 299.747328 78.027172 300.257578 78.701172 300.767578 80.099172 301.795578 81.509641 302.808781 82.931641 303.800781 83.449641 304.175781 83.952656 304.540531 84.472656 304.894531 84.616656 304.996531 84.748531 305.098266 84.894531 305.197266 86.243531 306.127266 87.623953 307.020063 89.001953 307.914063 89.594953 308.308063 90.182297 308.716609 90.779297 309.099609 92.893297 310.437609 95.039984 311.760109 97.208984 313.037109 97.797984 313.376109 98.392375 313.703063 98.984375 314.039063 100.579375 314.961063 102.184547 315.861047 103.810547 316.748047 104.690547 317.222047 105.593422 317.667047 106.482422 318.123047 107.628422 318.725047 108.767594 319.333969 109.933594 319.917969 110.198594 320.048969 110.473422 320.176688 110.732422 320.304688 111.202422 320.530688 111.675484 320.748328 112.146484 320.986328 113.954484 321.849328 115.776141 322.699531 117.619141 323.519531 118.011141 323.695531 118.390344 323.866109 118.777344 324.037109 120.886344 324.960109 123.012156 325.846406 125.160156 326.691406 125.676156 326.903406 126.197797 327.098734 126.716797 327.302734 128.703797 328.068734 130.717234 328.823203 132.740234 329.533203 132.995234 329.625203 133.241094 329.708875 133.496094 329.796875 135.715094 330.572875 137.957844 331.291141 140.214844 331.994141 140.752844 332.151141 141.292938 332.323469 141.835938 332.480469 144.132938 333.172469 146.401484 334.0005 148.771484 334.4375 299.257484 361.8795 342.970703 244.003906 342.970703 244.003906 306.257703 291.832906 241.090609 304.449344 179.349609 290.402344 177.008609 289.874344 174.739031 289.145703 172.457031 288.470703 171.877031 288.299703 171.309281 288.124219 170.738281 287.949219 168.510281 287.267219 166.299516 286.549016 164.103516 285.791016 163.802516 285.682016 163.498406 285.571891 163.191406 285.462891 161.222406 284.769891 159.276844 284.040969 157.339844 283.292969 156.792844 283.073969 156.246219 282.865484 155.699219 282.646484 153.575219 281.808484 151.465812 280.934438 149.382813 280.023438 148.953812 279.840438 148.544094 279.647844 148.121094 279.464844 146.329094 278.652844 144.557969 277.834375 142.792969 276.984375 142.282969 276.740375 141.772906 276.499141 141.253906 276.244141 139.867906 275.569141 138.497859 274.852438 137.130859 274.148438 136.215859 273.668438 135.285859 273.210984 134.380859 272.708984 132.711859 271.814984 131.073406 270.8855 129.441406 269.9375 128.889406 269.6275 128.329438 269.329813 127.773438 269.007813 125.604438 267.732813 123.460844 266.409359 121.339844 265.068359 120.754844 264.696359 120.182469 264.295109 119.605469 263.912109 118.066469 262.921109 116.534344 261.910188 115.027344 260.867188 114.527344 260.532188 114.044734 260.167031 113.552734 259.832031 112.095734 258.804031 110.656609 257.762078 109.224609 256.705078 108.576609 256.224078 107.938594 255.734906 107.308594 255.253906 105.997594 254.250906 104.693344 253.240172 103.402344 252.201172 102.819344 251.738172 102.236109 251.272641 101.662109 250.806641 100.021109 249.457641 98.398828 248.100031 96.798828 246.707031 96.631828 246.561031 96.448625 246.416766 96.265625 246.259766 94.534625 244.738766 92.833344 243.178328 91.152344 241.611328 90.663344 241.144328 90.190891 240.693563 89.712891 240.226563 88.467891 239.041562 87.242063 237.848047 86.039063 236.623047 85.556063 236.142047 85.073609 235.6695 84.599609 235.1875 83.068609 233.6205 81.564797 232.029969 80.091797 230.417969 80.018797 230.337969 79.943141 230.265641 79.869141 230.181641 78.310141 228.479641 76.787875 226.736516 75.296875 224.978516 74.891875 224.494516 74.501609 224.030641 74.099609 223.556641 72.987609 222.214641 71.883594 220.859281 70.808594 219.488281 70.403594 219.000281 70.000563 218.493328 69.601563 217.986328 68.305563 216.305328 67.040781 214.628781 65.800781 212.925781 31.521781 166.168781 19.207469 101.676891 46.605469 48.712891z" fill="#0868ac" transform="translate(498.656237 345.592761)"/></g></svg>
